X: 43
T:Wee Folk, The
M:6/8
L:1/8
C:Betsy O'Malley
S:With Betsy's variations in the repeats
R:Double Jig
K:G
GDB, CDE|DGF G2B|ced Bgb|afe d2a|!
gde dBc|BGA GEF|GBA GDB,|CED G,3||!
GDB, CDE|DGF G2B|cde dgb|afe d2a|!
gde dBc|BGA GEF|GBA GDB,|CED G,3|]!
G2d cdd|Bcd Adf|gba gdB|GcB A2D|!
dDc BDA|GEF DFA|GBA GDB,|CED G,3||!
Gdd cdd|Bcd Adf|gba gdB|GcB ADD|!
dDc BDA|GEF DFA|GBA GDB,|CED G,3|]!
